assets/img/blocks/form/column.svg

<?xml version="1.0" encoding="UTF-8"?>
<svg width="17px" height="16px" viewBox="0 0 17 16" version="1.1" xmlns="http://www.w3.org/2000/svg" xmlns:xlink="http://www.w3.org/1999/xlink">
    <!-- Generator: Sketch 58 (84663) - https://sketch.com -->
    <title>Column</title>
    <desc>Created with Sketch.</desc>
    <g id="Page-1" stroke="none" stroke-width="1" fill="none" fill-rule="evenodd">
        <path d="M15.1071609,0 C15.9910905,0 16.7143056,0.723215148 16.7143056,1.60714477 L16.7143056,13.821445 C16.7143056,14.7053747 15.9910905,15.4285898 15.1071609,15.4285898 L1.60714477,15.4285898 C0.723215148,15.4285898 0,14.7053747 0,13.821445 L0,1.60714477 C0,0.723215148 0.723215148,0 1.60714477,0 L15.1071609,0 Z M7.71429491,2.57143164 L1.28571582,2.57143164 L1.28571582,13.821445 C1.28571582,13.9708593 1.4010724,14.1048927 1.54430682,14.1360664 L1.60714477,14.142874 L7.71429491,14.142874 L7.71429491,2.57143164 Z M15.4285898,2.57143164 L9.00001073,2.57143164 L9.00001073,14.142874 L15.1071609,14.142874 C15.27792,14.142874 15.4285898,13.9922042 15.4285898,13.821445 L15.4285898,13.821445 L15.4285898,2.57143164 Z" id="Column" fill="#535F6A" fill-rule="nonzero"></path>
    </g>
</svg>

<svg xmlns="http://www.w3.org/2000/svg" width="17" height="16"><path fill="#535F6A" fill-rule="nonzero" d="M15.107 0c.884 0 1.607.723 1.607 1.607v12.214c0 .884-.723 1.608-1.607 1.608h-13.5A1.612 1.612 0 0 1 0 13.82V1.607C0 .723.723 0 1.607 0h13.5ZM7.714 2.571H1.286v11.25c0 .15.115.284.258.315l.063.007h6.107V2.57Zm7.715 0H9v11.572h6.107a.33.33 0 0 0 .322-.322V2.571Z"/></svg>
